X: 366
T: Lord Duncan's Reel
%R: reel
Z: 2014 John Chambers <jc:trillian.mit.edu>
B: Preston "Twenty four Country Dances for the Year 1799" p.163 #2
F: http://www.vwml.org/browse/browse-collections-dance-tune-books/browse-prestons1799# 2014-8-10
M: C|
L: 1/8
K: F
|:\
FEFA cAAc | FcAc G/G/G G2 |\
FAAc fcgc | abga f/f/f f2 :|
|:\
fdcA FcAc | fdcA G/G/G G2 |\
fgaf cfcA | GFGA F/F/F F2 :|
% - - - - - - - - - - - - - - - - - - - - - - - - -
%%begintext align
%% Right hands across .| left hands back again :|
%% lead down the middle :|. Allemand :|:
%%endtext
% - - - - - - - - - - - - - - - - - - - - - - - - -

%%sep 1 1 500
%%sep 1 1 500
